outputs/icons/communication/hourglass_round.svg

<svg xmlns="http://www.w3.org/2000/svg" width="1200" height="1200" fill="none"><path fill="#000" d="M799.835 1100c55.29 0 100.09-44.875 100-100.165l-.265-158.585a100.02 100.02 0 0 0-29.2-70.455L700 600l170.455-171.31a100 100 0 0 0 29.115-70.368l.265-158.155c.09-55.293-44.71-100.167-100-100.167H400c-55.228 0-100 44.772-100 100v158.579a100 100 0 0 0 29.29 70.71L500 600 329.378 770.195a100 100 0 0 0-29.378 70.8V1000c0 55.23 44.772 100 100 100zM400 375V200h400v175L608.84 566.16c-4.885 4.885-12.795 4.885-17.68 0z"/></svg>

<svg width="1200" height="1200" viewBox="0 0 1200 1200" fill="none" xmlns="http://www.w3.org/2000/svg"><path d="M799.835 1100C855.125 1100 899.925 1055.125 899.835 999.835L899.57 841.25C899.525 814.83 889.025 789.5 870.37 770.795L700 600L870.455 428.69C889.06 409.992 899.525 384.7 899.57 358.322L899.835 200.167C899.925 144.874 855.125 100 799.835 100H400C344.772 100 300 144.772 300 200V358.579C300 385.1 310.536 410.536 329.29 429.289L500 600L329.378 770.195C310.57 788.955 300 814.43 300 840.995V1000C300 1055.23 344.772 1100 400 1100H799.835ZM400 375V200H800V375L608.84 566.16C603.955 571.045 596.045 571.045 591.16 566.16L400 375Z" fill="#1D1E23"/></svg>
